X:1
T:Sentii l'altra mattina
T:Adriano Banchieri Bolognese
T:Source : Canzonette a tre voci di A.Banchieri---Venetia---R.Amadino---1597. Editor : André Vierendeels (09/03/17).
T:Notes : Original clefs : C1, C1, C4 Editorial accidentals above the staff m 4 in S 1 and m 12 in S 2 : "F" notated as "E" in original print Sub-heading : "Villotta" 
T:Sentii l'altra mattina
T:©
T:©
T:©
T:©
T:©
C:Adriano Banchieri Bolognese
Z:©
%%score [ 1 2 3 ]
L:1/8
Q:1/4=120
M:4/4
K:C
V:1 treble nm="Soprano" snm="S"
V:2 treble nm="Alto" snm="A"
V:3 treble-8 nm="Tenor" snm="T"
V:1
 A8 | d4 c2 B2- | B2 A2 ^G4 | A2 F2 GE A2- | A2 ^G2 A2 E2 | E3 E E2 F2 | EDEF E2 D2 | %7
w: Sen-|tii l'al- tra|* mat- ti-|na, l'al- tra mat- ti|* * na, in|ca- sa d'u- na|vec- * * * * chia|
w: Fa-|cea poi cer-|* ti'ac- cen-|ti, poi cer- ti'ac- cen-|* * ti, can-|tan- do ho- ra|col\_na- * * * * s'ho-|
 ^C2 D2 D2 C2 | D4 F4 | A4 A2 ^G2- | G2 A2 B4 |"^-natural" ^c2 A2 c2 c2 | B4 A2 A2 | G3 G G2 A2 | %14
w: con- ta- di- *|na, sen-|tii l'al- tra|* mat- ti-|na, l'al- tra mat-|ti- na, in|ca- sa d'u- na|
w: ra tra'i- den- ti,|fa- cea|poi cer- ti'ac-|* cen- ti|poi cer- ti'ac- cen-|ti, can- tan-|d'ho- ra col na-|
 GFGA G2 F2 | E2 D2 E4 | D8 | z4 z2 A2 | c2 A2 c2 F2 | G2 A2 G2 F2 | G2 A2 G2 F2 | G2 A2 F2 G2 | %22
w: vec- * * * * chia|con- ta di-|na,|can-|tar men- tre fa-|ce- va le pol-|pet- te, le pol-|pet- te, le pol-|
w: s'ho- * * * * ra|tra'i den- ti,|con|tich'|e toch' pe- stan-|* do * *|||
 E4 D4 | z4 A2 B2 | c4 c2 c2 | B4 A4 | G2 G2 c2 B2 | A6 ^G2 | A4 A2 ^G2 | A2 B2 c2 BA | %30
w: pet- te,|chi t'ha|fat- to quel-|le scar-|pet- te che ti|stan- si|ben, che ti|stan- si ben, gi- ro-|
w: ||||||||
 G2 G2 A2 G2 | F4 E4 | D4 F4 | A2 F2 A2 F2 | E2 F2 E2 D2 | E2 F2 E2 D2 | E2 F2 E2 D2 | %37
w: met- ta, che ti|stan- si|ben, can-|tar men- tre fa-|ce- va le pol-|pe- te, le pol-|pet- te, le pol-|
w: |||||||
 E2 F2 D2 E2 | ^C4 D4 | D2 E2 F4 | E2 ^F2 G4- |"^-natural" G2 D2 F2 F2 | E2 E2 A2 GF | E4 E4 | %44
w: pet- te, le pol-|pet- te,|chi t'ha fat-|to quel- le|* scar- pet- te|che ti stan- * *|* si|
w: |||||||
 E4 F2 E2 | c2 B2 A2 GF | E2 E2 F2 E2 | D4 ^C4 | D4 A2 G2 | F4 E4 | ^F8 |] %51
w: ben che ti|stan- si ben, gi- ro-|met- ta, che ti|stan- si|ben che ti|stan- si|ben.|
w: |||||||
V:2
 F8 | F4 A2 ^G2- | G2 A2 B4 |"^-natural""^-natural" ^c2 A2 c2 c2 | B4 A2 A2 | G3 G G2 A2 | %6
w: Sen-|tii l'al- tra|* mat- ti-|na, l'al- tra mat-|ti- na, in|ca- sa d'u- na|
w: tan-|te le gran|* ri- sa,|le gran ri- sa,|* che qua-|si mi o- ri-|
 GFGA G2 F2 | E2 D2 E4 | D4 z2 A2 | d4 c2 B2- | B2 A2 ^G4 | A2 F2 GE A2- | A2 ^G2 A2 E2 | %13
w: vec- * * * * chia|con- ta- di-|na, sen-|tii l'al- tra|* mat- ti-|na, l'al- tra mat- ti-|* * na, in|
w: nai * * * su la|ca- mi- na,|fur tan-|te le gran|* ri- sa,|le gran ri- se, *|* * che qua-|
 E3 E E2 F2 | EDEF E2 D2 | ^C2 D2 D2 C2 | D4 F4 | A2 F2 A2 F2 | E2 F2 E2 D2 | E2 F2 E2 D2 | %20
w: ca- sa d'u- na|vec- * * * * chia|con- ta- di- *|na, can-|tar men- tre pe-|sta- va le pol-|pet- te, le pol-|
w: si mi o- ri-|nau * * * su la|ca- mi- na, *|sen- ten|do nel pe- star|quel- le * *||
 E2 F2 E2 D2 | E2 F2 D2 E2 | ^C4 D4 | D2 E2 F4 | E2 ^F2 G4- | G2 D2 F2 F2 | E2 E2 A2 GF | E4 E4 | %28
w: pet- te, le pol-|pet- te, le pol-|pet- te,|ch'i t'ha fat-|to quel- le|* scar- pet- te|che ti stan- * *|* si|
w: ||||||||
 E4 F2 E2 |"^-natural" c2 B2 A2 GF | E2 E2 F2 E2 | D4 ^C4 | D8 | z4 z2 A2 | c2 A2 c2 G2 | %35
w: ben, che ti|stan- si ben, gi- ro-|met- ta, che ti|stan- si|ben,|can-|tar men- tre pe-|
w: |||||||
 G2 A2 G2 F2 | G2 A2 G2 F2 | G2 A2 F2 G2 | E4 D4 | z4 A2 B2 | c4 c2 c2 | B4 A4 | G2 G2 c2 B2 | %43
w: sta- va le pol-|pet- te, le pol-|pet- te, le pol-|pet- te,|chi t'ha|fat- to quel-|le scar-|pet- te che ti|
w: ||||||||
 A6 ^G2 | A4 A2 ^G2 | A2 B2 c2 BA | G2 G2 A2 G2 | F4 E4 | D4 F2 E2 | D4 ^C4 | D8 |] %51
w: stan- si|ben che ti|stan- si ben, gi- ro-|met- ta, che ti|stan- si|ben che ti|stan- si|ben.|
w: ||||||||
V:3
 d8 | d4 A2 e2- | e2 f2 e4 |"^-natural" A2 d2 c2 A2 | E4 A2 A2 | c3 c c2 F2 |"^-natural" c6 d2 | %7
w: Sen-|tii l'al- tra|* mat- ti-|na, l'al- tra mat-|ti- na, in|ca- sa d'u- na|vec- chia|
 A2 _B2 A4 | D4 d4 | d4 A2 e2- | e2 f2 e4 |"^-natural" A2 d2 c2 A2 | E4 A2 A2 | c3 c c2 F2 | %14
w: con- ta- di-|, sen-|tii l'al- tra|* mat- ti-|na, l'al- tra mat-|ti- na, in|ca- sa d'u- na|
 c6 d2 | A2 _B2 A4 | D4 d4 | A2 d2 A2 d2 | c2 F2 c2 d2 | c2 F2 c2 d2 | c2 F2 c2 d2 | c2 F2 _B2 G2 | %22
w: vec- chia|con- ta- di-|na, can-|tar men- tre pe-|sta- va le pol-|pet- te, le pol-|pet- te, le pol-|pet- te, le pol-|
 A4 D4 | D2 ^C2 D4 | A2 A2 E3 F | G2 G2 FGAB | c2 c2 A2 E2 | A2 GF E2 E2 | A4 D2 E2 | %29
w: pet- te,|chi t'ha fat-|to quel- le *|* scar- pet- * * *|* te che ti|stan- * * * si|ben, che ti|
 A2 ^G2 A2 EF | C2 C2 F2 C2 | D4 A4 | D4 d4 | A2 d2 A2 d2 | c2 F2 c2 d2 | c2 F2 c2 d2 | %36
w: stan- si ben, gi- ro-|met- ta, che si|stan- si|ben, can-|tar men- tre pe-|sta- va le pol-|pet- te, le pol-|
 c2 F2 c2 d2 | c2 F2 _B2 G2 | A4 D4 | D2 ^C2 D4 |"^#" A2 A2 E3 F |"^-natural" G2 G2 FGAB | %42
w: pet- te, le pol-|pet- te, le pol-|pet- te,|chi t'ha fat-|to quel- le\_scar- *|* pet- te * * *|
 c2 c2 A2 E2 | A2 GF E2 E2 | A4 D2 E2 | A2 ^G2 A2 EF | C2 C2 F2 C2 | D4 A4 | D4 D2 E2 | %49
w: * che ti stan-|si * * * ben|che ti qtan-|si ben, gi- ro- met-|ta, che ti stan-|si ben|che ti stan-|
 F2 ED A2 A2 | D8 |] %51
w: si * * * ben.||

